sail-boat-sink.svg

<svg fill="currentColor" viewBox="0 0 24 24"><path d="M20.96 21c-1.06 0-2.06-.26-3-.76-1.84 1-4.15 1-5.99 0-1.84 1-4.15 1-5.97 0-1.23.69-2.64.8-4 .76v-2c1.41.04 2.77-.11 4-1 1.74 1.24 4.21 1.24 5.97 0 1.77 1.24 4.23 1.24 5.99 0 1.21.89 2.58 1.04 3.98 1v2zM22 3.5 7.11 5.96l6 6.21zM10.81 16.36l1.16-.82 1.15.82c.53.36 1.18.57 1.85.57.15 0 .31-.02.46-.04L5.2 6.31C4.29 7.65 3.9 9.32 4 10.92l5.74 5.91c.39-.09.76-.25 1.07-.47"/></svg>

<svg  viewBox="0 0 24 24" fill="currentColor"><path  d="M20.96 21C19.9 21 18.9 20.74 17.96 20.24C16.12 21.24 13.81 21.24 11.97 20.24C10.13 21.24 7.82 21.24 6 20.24C4.77 20.93 3.36 21.04 2 21V19C3.41 19.04 4.77 18.89 6 18C7.74 19.24 10.21 19.24 11.97 18C13.74 19.24 16.2 19.24 17.96 18C19.17 18.89 20.54 19.04 21.94 19V21H20.96M22 3.5L7.11 5.96L13.11 12.17L22 3.5M10.81 16.36L11.97 15.54L13.12 16.36C13.65 16.72 14.3 16.93 14.97 16.93C15.12 16.93 15.28 16.91 15.43 16.89L5.2 6.31C4.29 7.65 3.9 9.32 4 10.92L9.74 16.83C10.13 16.74 10.5 16.58 10.81 16.36Z"/></svg>
